src/lib/packages/icons/src/assets/line/user-minus-alt.svg

<svg xmlns="http://www.w3.org/2000/svg" width="24" height="24" fill="none"><path fill="currentColor" d="M21.75 10a.75.75 0 0 1-.75.75h-5a.75.75 0 0 1 0-1.5h5a.75.75 0 0 1 .75.75ZM5.759 6.5a4.255 4.255 0 0 1 4.25-4.25 4.255 4.255 0 0 1 4.25 4.25 4.255 4.255 0 0 1-4.25 4.25 4.255 4.255 0 0 1-4.25-4.25Zm1.5 0a2.752 2.752 0 0 0 2.75 2.75 2.752 2.752 0 0 0 2.75-2.75 2.752 2.752 0 0 0-2.75-2.75 2.752 2.752 0 0 0-2.75 2.75ZM12 12.25H8c-4.244 0-5.75 3.107-5.75 5.769V21a.75.75 0 0 0 1.5 0v-2.981c0-1.001.307-4.269 4.25-4.269h4c3.943 0 4.25 3.267 4.25 4.269V21a.75.75 0 0 0 1.5 0v-2.981c0-2.662-1.506-5.769-5.75-5.769Z"/></svg>

<svg width="24" height="24" viewBox="0 0 24 24" fill="none" xmlns="http://www.w3.org/2000/svg">
<path d="M21.75 10C21.75 10.414 21.414 10.75 21 10.75H16C15.586 10.75 15.25 10.414 15.25 10C15.25 9.586 15.586 9.25 16 9.25H21C21.414 9.25 21.75 9.586 21.75 10ZM5.75903 6.5C5.75903 4.157 7.66503 2.25 10.009 2.25C12.353 2.25 14.259 4.157 14.259 6.5C14.259 8.843 12.353 10.75 10.009 10.75C7.66503 10.75 5.75903 8.843 5.75903 6.5ZM7.25903 6.5C7.25903 8.017 8.49203 9.25 10.009 9.25C11.526 9.25 12.759 8.017 12.759 6.5C12.759 4.983 11.526 3.75 10.009 3.75C8.49203 3.75 7.25903 4.983 7.25903 6.5ZM12 12.25H8C3.756 12.25 2.25 15.357 2.25 18.019V21C2.25 21.414 2.586 21.75 3 21.75C3.414 21.75 3.75 21.414 3.75 21V18.019C3.75 17.018 4.057 13.75 8 13.75H12C15.943 13.75 16.25 17.017 16.25 18.019V21C16.25 21.414 16.586 21.75 17 21.75C17.414 21.75 17.75 21.414 17.75 21V18.019C17.75 15.357 16.244 12.25 12 12.25Z" fill="currentColor"/>
</svg>
